modules/feathericon/icons/watch-alt.svg

<svg width="8" height="14" viewBox="0 0 8 14" xmlns="http://www.w3.org/2000/svg"><path d="M1 11s-1 0-1-1V4c0-1 1-1 1-1h1V1.004C2 0 3 0 3 0h2s1 .004 1 1.004V3h1s1 0 1 1v6c0 1-1 1-1 1H6v2c0 1-1 1-1 1H3s-1 0-1-1v-2H1zm0-7v6h6V4H1z" fill="#000" fill-rule="evenodd"/></svg>

<?xml version="1.0" encoding="UTF-8"?>
<svg width="8px" height="14px" viewBox="0 0 8 14" version="1.1" xmlns="http://www.w3.org/2000/svg" xmlns:xlink="http://www.w3.org/1999/xlink">
    <!-- Generator: sketchtool 48.1 (47250) - http://www.bohemiancoding.com/sketch -->
    <title>watch-alt</title>
    <desc>Created with sketchtool.</desc>
    <defs></defs>
    <g id="devices" stroke="none" stroke-width="1" fill="none" fill-rule="evenodd">
        <g id="watch-alt" fill="#000000">
            <path d="M1,11 C1,11 0,11 0,10 L0,4 C0,3 1,3 1,3 L2,3 L2,1.0035224 C2,0 3,0 3,0 L5,0 C5,0 6,0.00352239609 6,1.0035224 L6,3 L7,3 C7,3 8,3 8,4 L8,10 C8,11 7,11 7,11 L6,11 L6,13 C6,14 5,14 5,14 L3,14 C3,14 2,14 2,13 L2,11 L1,11 Z M1,4 L1,10 L7,10 L7,4 L1,4 Z" id="Shape"></path>
        </g>
    </g>
</svg>
